**kern	**kern
*staff1	*staff2
*clefG2	*clefG2
*k[b-]	*k[b-]
*M2/4	*M2/4
*F:	*F:
4cc	4r
=21	=21
(8aL	8F 8c
8fJ	8r
8aL 8ff	8F 8c
8ccJ)	8r
=22	=22
(4g 4b-	8E 8c
.	8r
4f) 4a	8F 8c
.	8r
=23	=23
8eL 8g	8B-L 8c
8fJ	8AJ 8c
8gL 8b-	8EL 8c
8fJ 8a	8FJ 8c
=24	=24
4e 4g	4C 4c
4cc	4r
=25	=25
8aL 8cc	2F 2c
8aJ	.
(16ffLL	.
16ee	.
16dd	.
16ccJJ)	.
=26	=26
(4g 4b-	(4E 4c
4f) 4a	4F) 4c
=27	=27
8gL	2G 2B
8ffJ	.
8eeL	.
8fJ 8dd	.
=28	=28
*	*^
4e 4cc	8EL	4C
.	8GJ	.
*	*v	*v
*-	*-
